X:270
T:The Broken Pledge
R:Reel
S:Paul O'Shaughnessy, Dublin (fiddle)
D:Television broadcast
H:Up a tone from its usual 'Dm'
Z:Bernie Stocks
M:4/4
N:As played
K:D
f || edBA BE~E2 | dBAG FDDF | EFGA Beed | (3BcB Ad Bd (3.g.g.f |
edBA ~B3c | dBAG FDDF | EFGA Beed | (3BcBAF {G}FEE2 ::
ed (3.B.B.A Bdef | {agf}g2 eg fdBc |{e}dAFA d3D3e | {afe}f2 eg fd(3.B.c.d |
edBA {dBA}B2 ef | f-geg fdBA | B3G3A Beed | (3BdB AF {G}FEE2 ||
